Facilitet_punkt_5800_Piktogrammer/Cirkel/SVG/NATURKANON.svg

<svg xmlns="http://www.w3.org/2000/svg" width="5.5mm" height="5.5mm" viewBox="0 0 15.591 15.591">
  <rect width="15.591" height="15.591" rx="7.795" fill="#031E3A"/>
  <path d="M11.977,4.211H4.613a.8.8,0,1,1,0-1.593h7.364a.2.2,0,0,0,0-.4H4.613a1.2,1.2,0,0,0-1.2,1.195l0,8.761a1.2,1.2,0,0,0,1.194,1.2h7.368a.2.2,0,0,0,.2-.2V4.41A.2.2,0,0,0,11.977,4.211ZM9.749,10.046A.857.857,0,0,1,8.677,9.87l-.418.242V11.34a.1.1,0,0,1-.1.1H8.015a.1.1,0,0,1-.1-.1V10.112L7.5,9.87a.857.857,0,0,1-1.072.176A4.212,4.212,0,0,1,5.354,8.434a4.234,4.234,0,0,1,1.933.126.858.858,0,0,1,.384,1.016l.248.144V8.436A.859.859,0,0,1,7.231,7.6a4.218,4.218,0,0,1,.858-1.737A4.218,4.218,0,0,1,8.947,7.6a.859.859,0,0,1-.688.841V9.72l.248-.144A.859.859,0,0,1,8.891,8.56a4.234,4.234,0,0,1,1.933-.126A4.212,4.212,0,0,1,9.749,10.046Z" fill="#fff"/>
</svg>

<?xml version="1.0" encoding="UTF-8"?>
<svg xmlns="http://www.w3.org/2000/svg" viewBox="0 0 15.59 15.59">
  <defs>
    <style>
      .cls-1 {
        fill: #071f39;
      }

      .cls-1, .cls-2 {
        stroke-width: 0px;
      }

      .cls-2 {
        fill: #fff;
      }
    </style>
  </defs>
  <g id="Cirkel">
    <rect class="cls-1" x="0" y="0" width="15.59" height="15.59" rx="7.8" ry="7.8"/>
  </g>
  <g id="ICONS">
    <path class="cls-2" d="M11.98,4.21h-7.36c-.44,0-.8-.36-.8-.8s.36-.8.8-.8h7.36c.11,0,.2-.09.2-.2s-.09-.2-.2-.2h-7.36c-.66,0-1.19.54-1.19,1.19v8.76c0,.66.53,1.19,1.19,1.19h7.37c.11,0,.2-.09.2-.2V4.41c0-.11-.09-.2-.2-.2ZM9.75,10.05c-.36.21-.81.13-1.07-.18l-.42.24v1.23c0,.05-.04.1-.1.1h-.15c-.05,0-.1-.04-.1-.1v-1.23l-.42-.24c-.26.3-.71.38-1.07.18-.43-.25-.85-1.14-1.08-1.61.52-.04,1.5-.13,1.93.13.36.21.51.64.38,1.02l.25.14v-1.28c-.39-.08-.69-.43-.69-.84,0-.5.56-1.3.86-1.74.3.43.86,1.23.86,1.74,0,.42-.3.76-.69.84v1.28l.25-.14c-.13-.38.02-.81.38-1.02.43-.25,1.41-.17,1.93-.13-.22.48-.64,1.36-1.08,1.61Z"/>
  </g>
</svg>
